speedtest.svg

<?xml version="1.0" encoding="UTF-8"?>
<svg viewBox="0 0 9 8" version="1.1" xmlns="http://www.w3.org/2000/svg" xmlns:xlink="http://www.w3.org/1999/xlink">
    <title>Combined Shape</title>
    <g id="Page-1" stroke="none" stroke-width="1" fill="none" fill-rule="evenodd">
        <path d="M4.5398256,0.409063 C6.78003824,0.409063 8.55749588,2.22239168 8.55749588,4.42673357 C8.55749588,5.35145288 8.23776608,6.24043534 7.74001142,6.98706732 L7.49123185,7.27118811 L7.0290139,6.8094358 L7.20618269,6.56019001 C7.66870025,5.95545848 7.95345036,5.20891962 7.95345036,4.42673357 C7.95345036,2.57761309 6.45977455,1.08425483 4.61097215,1.08425483 C2.76216945,1.08425483 1.26849381,2.57761309 1.26849381,4.42673357 C1.26849381,5.20891962 1.51754172,5.95545848 2.01529718,6.56019001 L2.19292952,6.8094358 L1.73071042,7.27118811 L1.48193148,6.98706732 C0.877516758,6.27599114 0.55749588,5.35145288 0.55749588,4.42673357 C0.55749588,2.22239168 2.29961255,0.409063 4.5398256,0.409063 Z M5.99762626,2.64900754 L6.31755134,2.96893343 L4.5398256,5.2088774 L3.75768235,4.42673357 L5.99762626,2.64900754 Z" id="Combined-Shape" fill="#000000"></path>
    </g>
</svg>

<svg viewBox="0 0 9 8" xmlns="http://www.w3.org/2000/svg"><path d="M4.54.41a4.013 4.013 0 0 1 4.017 4.017c0 .924-.32 1.813-.817 2.56l-.249.284-.462-.462.177-.249a3.533 3.533 0 0 0 .747-2.133 3.339 3.339 0 0 0-3.342-3.343 3.339 3.339 0 0 0-3.343 3.343c0 .782.25 1.528.747 2.133l.178.25-.462.461-.25-.284a3.973 3.973 0 0 1-.924-2.56C.557 2.222 2.3.409 4.54.409Zm1.458 2.239.32.32-1.778 2.24-.782-.782 2.24-1.778Z" fill="#000" fill-rule="evenodd"/></svg>
